report_00007_2020-12-11T15:55:29.892Z/first-cpu-idle/comparison/sorted/7_vs_8.svg

<svg width="640" height="500" xmlns="http://www.w3.org/2000/svg" xmlns:xlink="http://www.w3.org/1999/xlink"><path fill="#fff" d="M0 0h640v500H0z"/><defs><path id="d" stroke-width=".222" stroke="currentColor" d="M-1-1h2v2h-2z"/><path id="b" stroke-width=".222" stroke="currentColor" d="M0-1.33l-1.33 2h2.66z"/><path id="f" stroke-width=".222" stroke="currentColor" d="M0 1.33L1.265.411.782-1.067l-1.564-.009-.483 1.487z"/><use xlink:href="#b" id="c" stroke="currentColor" transform="rotate(180)"/><use xlink:href="#d" id="e" stroke="currentColor" transform="rotate(45)"/><circle id="a" stroke-width=".222" stroke="currentColor" cx="0" cy="0" r="1"/></defs><g fill="none" color="#000" stroke="currentColor"><path stroke="#000" d="M62.2 361.6h9m543.8 0h-9"/><text transform="translate(53.9 365.5)" stroke="none" fill="#000" font-family="Arial" font-size="12" text-anchor="end"><tspan>1850</tspan></text></g><g fill="none" color="#000" stroke="currentColor"><path stroke="#000" d="M62.2 278.9h9m543.8 0h-9"/><text transform="translate(53.9 282.8)" stroke="none" fill="#000" font-family="Arial" font-size="12" text-anchor="end"><tspan>1900</tspan></text></g><g fill="none" color="#000" stroke="currentColor"><path stroke="#000" d="M62.2 196.2h9m543.8 0h-9"/><text transform="translate(53.9 200.1)" stroke="none" fill="#000" font-family="Arial" font-size="12" text-anchor="end"><tspan>1950</tspan></text></g><g fill="none" color="#000" stroke="currentColor"><path stroke="#000" d="M62.2 113.5h9m543.8 0h-9"/><text transform="translate(53.9 117.4)" stroke="none" fill="#000" font-family="Arial" font-size="12" text-anchor="end"><tspan>2000</tspan></text></g><g fill="none" color="#000" stroke="currentColor"><path stroke="#000" d="M62.2 30.7h9m543.8 0h-9"/><text transform="translate(53.9 34.6)" stroke="none" fill="#000" font-family="Arial" font-size="12" text-anchor="end"><tspan>2050</tspan></text></g><g fill="none" color="#000" stroke="currentColor"><path stroke="#000" d="M62.2 428v-9m0-400.9v9"/><text transform="translate(62.2 449.9)" stroke="none" fill="#000" font-family="Arial" font-size="12" text-anchor="middle"><tspan>0</tspan></text></g><g fill="none" color="#000" stroke="currentColor"><path stroke="#000" d="M118 428v-9m0-400.9v9"/><text transform="translate(118 449.9)" stroke="none" fill="#000" font-family="Arial" font-size="12" text-anchor="middle"><tspan>10</tspan></text></g><g fill="none" color="#000" stroke="currentColor"><path stroke="#000" d="M173.9 428v-9m0-400.9v9"/><text transform="translate(173.9 449.9)" stroke="none" fill="#000" font-family="Arial" font-size="12" text-anchor="middle"><tspan>20</tspan></text></g><g fill="none" color="#000" stroke="currentColor"><path stroke="#000" d="M229.7 428v-9m0-400.9v9"/><text transform="translate(229.7 449.9)" stroke="none" fill="#000" font-family="Arial" font-size="12" text-anchor="middle"><tspan>30</tspan></text></g><g fill="none" color="#000" stroke="currentColor"><path stroke="#000" d="M285.6 428v-9m0-400.9v9"/><text transform="translate(285.6 449.9)" stroke="none" fill="#000" font-family="Arial" font-size="12" text-anchor="middle"><tspan>40</tspan></text></g><g fill="none" color="#000" stroke="currentColor"><path stroke="#000" d="M341.4 428v-9m0-400.9v9"/><text transform="translate(341.4 449.9)" stroke="none" fill="#000" font-family="Arial" font-size="12" text-anchor="middle"><tspan>50</tspan></text></g><g fill="none" color="#000" stroke="currentColor"><path stroke="#000" d="M397.2 428v-9m0-400.9v9"/><text transform="translate(397.2 449.9)" stroke="none" fill="#000" font-family="Arial" font-size="12" text-anchor="middle"><tspan>60</tspan></text></g><g fill="none" color="#000" stroke="currentColor"><path stroke="#000" d="M453.1 428v-9m0-400.9v9"/><text transform="translate(453.1 449.9)" stroke="none" fill="#000" font-family="Arial" font-size="12" text-anchor="middle"><tspan>70</tspan></text></g><g fill="none" color="#000" stroke="currentColor"><path stroke="#000" d="M508.9 428v-9m0-400.9v9"/><text transform="translate(508.9 449.9)" stroke="none" fill="#000" font-family="Arial" font-size="12" text-anchor="middle"><tspan>80</tspan></text></g><g fill="none" color="#000" stroke="currentColor"><path stroke="#000" d="M564.7 428v-9m0-400.9v9"/><text transform="translate(564.7 449.9)" stroke="none" fill="#000" font-family="Arial" font-size="12" text-anchor="middle"><tspan>90</tspan></text></g><path stroke="#000" d="M62.2 18.1V428H615V18.1H62.2z" fill="none" color="#000"/><text transform="translate(279.8 467.9)" stroke="none" fill="#000" font-family="Arial" font-size="12" text-anchor="end" color="#000"><tspan>pages+cached+noexternal+nosvg</tspan></text><path stroke="#9400D3" d="M288.1 464h42.2M62.2 419.6l5.6-1.2 5.6-.3 5.6-.4 5.5-.1h5.6l5.6-.1h5.6l5.6-.2 5.6-.1 5.5-.5 5.6-.1h5.6l5.6-.2 5.6-.1h11.1l5.6-.1 5.6-.1h5.6l5.6-.2 5.6-.1h5.5l5.6-.1h11.2l5.6-.4h5.6l5.5-.3 5.6-.3 5.6-.1 5.6-.3h5.6l5.6-.2h16.7l5.6-.1h5.6l5.6-.1 5.6-.2h5.5l5.6-.2 5.6-.1h5.6l5.6-.1h11.1l5.6-.1 5.6-.3 5.6-.2h5.6l5.6-.1h5.5l5.6-.1 5.6-.1 5.6-.1 5.6-.1h5.6l5.5-.2 5.6-.1 5.6-.1h5.6l5.6-.1h5.6l5.5-.1h11.2l5.6-.1h5.6l5.6-.1 5.6-.1 5.5-.2 5.6-.1 5.6-.1 5.6-.1 5.6-.1h5.6l5.5-.2h5.6l5.6-.1h5.6l5.6-.3h5.6l5.5-.3 5.6-.5 5.6-.7h11.2l5.6-.3 5.5-.5 5.6-1.4 5.6-.3 5.6-.6 5.6-364.9 5.6-5.6 5.5-1.4 5.6-.1 5.6-5L615 26" fill="none" color="#000"/><text transform="translate(279.8 485.9)" stroke="none" fill="#000" font-family="Arial" font-size="12" text-anchor="end" color="#000"><tspan>pages+cached+noexternal+noimg</tspan></text><path stroke="#009E73" d="M288.1 482h42.2M62.2 420.1l5.6-.1 5.6-.2 5.6-.5 5.5-.7 5.6-.3 5.6-.1 5.6-.6 5.6-.3 5.6-.6 5.5-.4 5.6-.2 5.6-.1h11.2l5.6-.5 5.5-.2h5.6l5.6-.1 5.6-.1 5.6-.5 5.6-.1 5.5-.1 5.6-.1 5.6-.3 5.6-.1 5.6-.1 5.6-.4 5.5-.1h5.6l5.6-.2h5.6l5.6-.7 5.6-.3 5.6-1.8 5.5-242.3 5.6-1.1 5.6-1.9 5.6-1.5 5.6-.3 5.6-.2 5.5-1 5.6-.2 5.6-1.4 5.6-1.1 5.6-.3h5.6l5.5-.1 5.6-1.8 5.6-.1 5.6-111.1 5.6-1.8 5.6-1 5.5-1.6 5.6-.5 5.6-.2 5.6-.5 5.6-.1h5.6l5.5-.2 5.6-.5 5.6-.7 5.6-.2 5.6-.7h5.6l5.5-.1h11.2l5.6-.2 5.6-.3 5.6-.2 5.6-.2 5.5-.1 5.6-.1H481l5.6-.4 5.6-.4h11.1l5.6-.1 5.6-.2h5.6l5.6-.3h5.5l5.6-.2 5.6-.3h11.2l5.6-.2 5.5-.5 5.6-.7h11.2l5.6-.4 5.6-.1 5.5-.1 5.6-1.1 5.6-1.2 5.6-.9" fill="none" color="#000"/><text transform="translate(579.3 467.9)" stroke="none" fill="#000" font-family="Arial" font-size="12" text-anchor="end" color="#000"><tspan>score p10=3572</tspan></text><path stroke="#56B4E9" d="M587.6 464h42.2" fill="none" color="#000"/><g><text transform="translate(579.3 485.9)" stroke="none" fill="#000" font-family="Arial" font-size="12" text-anchor="end" color="#000"><tspan>score median=6500</tspan></text><path stroke="#E69F00" d="M587.6 482h42.2" fill="none" color="#000"/></g><g fill="none" color="#000" stroke="currentColor"><path stroke="#000" d="M62.2 18.1V428H615V18.1H62.2z"/></g></svg>

<?xml version="1.0" encoding="utf-8"  standalone="no"?>
<svg 
 width="640" height="500"
 viewBox="0 0 640 500"
 xmlns="http://www.w3.org/2000/svg"
 xmlns:xlink="http://www.w3.org/1999/xlink"
>

<title>Gnuplot</title>
<desc>Produced by GNUPLOT 5.4 patchlevel 0 </desc>

<g id="gnuplot_canvas">

<rect x="0" y="0" width="640" height="500" fill="#ffffff"/>
<defs>

	<circle id='gpDot' r='0.5' stroke-width='0.5' stroke='currentColor'/>
	<path id='gpPt0' stroke-width='0.222' stroke='currentColor' d='M-1,0 h2 M0,-1 v2'/>
	<path id='gpPt1' stroke-width='0.222' stroke='currentColor' d='M-1,-1 L1,1 M1,-1 L-1,1'/>
	<path id='gpPt2' stroke-width='0.222' stroke='currentColor' d='M-1,0 L1,0 M0,-1 L0,1 M-1,-1 L1,1 M-1,1 L1,-1'/>
	<rect id='gpPt3' stroke-width='0.222' stroke='currentColor' x='-1' y='-1' width='2' height='2'/>
	<rect id='gpPt4' stroke-width='0.222' stroke='currentColor' fill='currentColor' x='-1' y='-1' width='2' height='2'/>
	<circle id='gpPt5' stroke-width='0.222' stroke='currentColor' cx='0' cy='0' r='1'/>
	<use xlink:href='#gpPt5' id='gpPt6' fill='currentColor' stroke='none'/>
	<path id='gpPt7' stroke-width='0.222' stroke='currentColor' d='M0,-1.33 L-1.33,0.67 L1.33,0.67 z'/>
	<use xlink:href='#gpPt7' id='gpPt8' fill='currentColor' stroke='none'/>
	<use xlink:href='#gpPt7' id='gpPt9' stroke='currentColor' transform='rotate(180)'/>
	<use xlink:href='#gpPt9' id='gpPt10' fill='currentColor' stroke='none'/>
	<use xlink:href='#gpPt3' id='gpPt11' stroke='currentColor' transform='rotate(45)'/>
	<use xlink:href='#gpPt11' id='gpPt12' fill='currentColor' stroke='none'/>
	<path id='gpPt13' stroke-width='0.222' stroke='currentColor' d='M0,1.330 L1.265,0.411 L0.782,-1.067 L-0.782,-1.076 L-1.265,0.411 z'/>
	<use xlink:href='#gpPt13' id='gpPt14' fill='currentColor' stroke='none'/>
	<filter id='textbox' filterUnits='objectBoundingBox' x='0' y='0' height='1' width='1'>
	  <feFlood flood-color='#FFFFFF' flood-opacity='1' result='bgnd'/>
	  <feComposite in='SourceGraphic' in2='bgnd' operator='atop'/>
	</filter>
	<filter id='greybox' filterUnits='objectBoundingBox' x='0' y='0' height='1' width='1'>
	  <feFlood flood-color='lightgrey' flood-opacity='1' result='grey'/>
	  <feComposite in='SourceGraphic' in2='grey' operator='atop'/>
	</filter>
</defs>
<g fill="none" color="#FFFFFF" stroke="black" stroke-width="1.00" stroke-linecap="butt" stroke-linejoin="miter">
</g>
<g fill="none" color="black" stroke="currentColor" stroke-width="1.00" stroke-linecap="butt" stroke-linejoin="miter">
	<path stroke='black'  d='M62.2,361.6 L71.2,361.6 M615.0,361.6 L606.0,361.6  '/>	<g transform="translate(53.9,365.5)" stroke="none" fill="black" font-family="Arial" font-size="12.00"  text-anchor="end">
		<text><tspan font-family="Arial" > 1850</tspan></text>
	</g>
</g>
<g fill="none" color="black" stroke="currentColor" stroke-width="1.00" stroke-linecap="butt" stroke-linejoin="miter">
	<path stroke='black'  d='M62.2,278.9 L71.2,278.9 M615.0,278.9 L606.0,278.9  '/>	<g transform="translate(53.9,282.8)" stroke="none" fill="black" font-family="Arial" font-size="12.00"  text-anchor="end">
		<text><tspan font-family="Arial" > 1900</tspan></text>
	</g>
</g>
<g fill="none" color="black" stroke="currentColor" stroke-width="1.00" stroke-linecap="butt" stroke-linejoin="miter">
	<path stroke='black'  d='M62.2,196.2 L71.2,196.2 M615.0,196.2 L606.0,196.2  '/>	<g transform="translate(53.9,200.1)" stroke="none" fill="black" font-family="Arial" font-size="12.00"  text-anchor="end">
		<text><tspan font-family="Arial" > 1950</tspan></text>
	</g>
</g>
<g fill="none" color="black" stroke="currentColor" stroke-width="1.00" stroke-linecap="butt" stroke-linejoin="miter">
	<path stroke='black'  d='M62.2,113.5 L71.2,113.5 M615.0,113.5 L606.0,113.5  '/>	<g transform="translate(53.9,117.4)" stroke="none" fill="black" font-family="Arial" font-size="12.00"  text-anchor="end">
		<text><tspan font-family="Arial" > 2000</tspan></text>
	</g>
</g>
<g fill="none" color="black" stroke="currentColor" stroke-width="1.00" stroke-linecap="butt" stroke-linejoin="miter">
	<path stroke='black'  d='M62.2,30.7 L71.2,30.7 M615.0,30.7 L606.0,30.7  '/>	<g transform="translate(53.9,34.6)" stroke="none" fill="black" font-family="Arial" font-size="12.00"  text-anchor="end">
		<text><tspan font-family="Arial" > 2050</tspan></text>
	</g>
</g>
<g fill="none" color="black" stroke="currentColor" stroke-width="1.00" stroke-linecap="butt" stroke-linejoin="miter">
	<path stroke='black'  d='M62.2,428.0 L62.2,419.0 M62.2,18.1 L62.2,27.1  '/>	<g transform="translate(62.2,449.9)" stroke="none" fill="black" font-family="Arial" font-size="12.00"  text-anchor="middle">
		<text><tspan font-family="Arial" > 0</tspan></text>
	</g>
</g>
<g fill="none" color="black" stroke="currentColor" stroke-width="1.00" stroke-linecap="butt" stroke-linejoin="miter">
	<path stroke='black'  d='M118.0,428.0 L118.0,419.0 M118.0,18.1 L118.0,27.1  '/>	<g transform="translate(118.0,449.9)" stroke="none" fill="black" font-family="Arial" font-size="12.00"  text-anchor="middle">
		<text><tspan font-family="Arial" > 10</tspan></text>
	</g>
</g>
<g fill="none" color="black" stroke="currentColor" stroke-width="1.00" stroke-linecap="butt" stroke-linejoin="miter">
	<path stroke='black'  d='M173.9,428.0 L173.9,419.0 M173.9,18.1 L173.9,27.1  '/>	<g transform="translate(173.9,449.9)" stroke="none" fill="black" font-family="Arial" font-size="12.00"  text-anchor="middle">
		<text><tspan font-family="Arial" > 20</tspan></text>
	</g>
</g>
<g fill="none" color="black" stroke="currentColor" stroke-width="1.00" stroke-linecap="butt" stroke-linejoin="miter">
	<path stroke='black'  d='M229.7,428.0 L229.7,419.0 M229.7,18.1 L229.7,27.1  '/>	<g transform="translate(229.7,449.9)" stroke="none" fill="black" font-family="Arial" font-size="12.00"  text-anchor="middle">
		<text><tspan font-family="Arial" > 30</tspan></text>
	</g>
</g>
<g fill="none" color="black" stroke="currentColor" stroke-width="1.00" stroke-linecap="butt" stroke-linejoin="miter">
	<path stroke='black'  d='M285.6,428.0 L285.6,419.0 M285.6,18.1 L285.6,27.1  '/>	<g transform="translate(285.6,449.9)" stroke="none" fill="black" font-family="Arial" font-size="12.00"  text-anchor="middle">
		<text><tspan font-family="Arial" > 40</tspan></text>
	</g>
</g>
<g fill="none" color="black" stroke="currentColor" stroke-width="1.00" stroke-linecap="butt" stroke-linejoin="miter">
	<path stroke='black'  d='M341.4,428.0 L341.4,419.0 M341.4,18.1 L341.4,27.1  '/>	<g transform="translate(341.4,449.9)" stroke="none" fill="black" font-family="Arial" font-size="12.00"  text-anchor="middle">
		<text><tspan font-family="Arial" > 50</tspan></text>
	</g>
</g>
<g fill="none" color="black" stroke="currentColor" stroke-width="1.00" stroke-linecap="butt" stroke-linejoin="miter">
	<path stroke='black'  d='M397.2,428.0 L397.2,419.0 M397.2,18.1 L397.2,27.1  '/>	<g transform="translate(397.2,449.9)" stroke="none" fill="black" font-family="Arial" font-size="12.00"  text-anchor="middle">
		<text><tspan font-family="Arial" > 60</tspan></text>
	</g>
</g>
<g fill="none" color="black" stroke="currentColor" stroke-width="1.00" stroke-linecap="butt" stroke-linejoin="miter">
	<path stroke='black'  d='M453.1,428.0 L453.1,419.0 M453.1,18.1 L453.1,27.1  '/>	<g transform="translate(453.1,449.9)" stroke="none" fill="black" font-family="Arial" font-size="12.00"  text-anchor="middle">
		<text><tspan font-family="Arial" > 70</tspan></text>
	</g>
</g>
<g fill="none" color="black" stroke="currentColor" stroke-width="1.00" stroke-linecap="butt" stroke-linejoin="miter">
	<path stroke='black'  d='M508.9,428.0 L508.9,419.0 M508.9,18.1 L508.9,27.1  '/>	<g transform="translate(508.9,449.9)" stroke="none" fill="black" font-family="Arial" font-size="12.00"  text-anchor="middle">
		<text><tspan font-family="Arial" > 80</tspan></text>
	</g>
</g>
<g fill="none" color="black" stroke="currentColor" stroke-width="1.00" stroke-linecap="butt" stroke-linejoin="miter">
	<path stroke='black'  d='M564.7,428.0 L564.7,419.0 M564.7,18.1 L564.7,27.1  '/>	<g transform="translate(564.7,449.9)" stroke="none" fill="black" font-family="Arial" font-size="12.00"  text-anchor="middle">
		<text><tspan font-family="Arial" > 90</tspan></text>
	</g>
</g>
<g fill="none" color="black" stroke="currentColor" stroke-width="1.00" stroke-linecap="butt" stroke-linejoin="miter">
</g>
<g fill="none" color="black" stroke="currentColor" stroke-width="1.00" stroke-linecap="butt" stroke-linejoin="miter">
	<path stroke='black'  d='M62.2,18.1 L62.2,428.0 L615.0,428.0 L615.0,18.1 L62.2,18.1 Z  '/></g>
<g fill="none" color="black" stroke="currentColor" stroke-width="1.00" stroke-linecap="butt" stroke-linejoin="miter">
</g>
	<g id="gnuplot_plot_1" ><title>pages+cached+noexternal+nosvg</title>
<g fill="none" color="black" stroke="currentColor" stroke-width="1.00" stroke-linecap="butt" stroke-linejoin="miter">
	<g transform="translate(279.8,467.9)" stroke="none" fill="black" font-family="Arial" font-size="12.00"  text-anchor="end">
		<text><tspan font-family="Arial" >pages+cached+noexternal+nosvg</tspan></text>
	</g>
</g>
<g fill="none" color="black" stroke="currentColor" stroke-width="1.00" stroke-linecap="butt" stroke-linejoin="miter">
	<path stroke='rgb(148,   0, 211)'  d='M288.1,464.0 L330.3,464.0 M62.2,419.6 L67.8,418.4 L73.4,418.1 L79.0,417.7 L84.5,417.6 L90.1,417.6
		L95.7,417.5 L101.3,417.5 L106.9,417.3 L112.5,417.2 L118.0,416.7 L123.6,416.6 L129.2,416.6 L134.8,416.4
		L140.4,416.3 L146.0,416.3 L151.5,416.3 L157.1,416.2 L162.7,416.1 L168.3,416.1 L173.9,415.9 L179.5,415.8
		L185.0,415.8 L190.6,415.7 L196.2,415.7 L201.8,415.7 L207.4,415.3 L213.0,415.3 L218.5,415.0 L224.1,414.7
		L229.7,414.6 L235.3,414.3 L240.9,414.3 L246.5,414.1 L252.1,414.1 L257.6,414.1 L263.2,414.1 L268.8,414.0
		L274.4,414.0 L280.0,413.9 L285.6,413.7 L291.1,413.7 L296.7,413.5 L302.3,413.4 L307.9,413.4 L313.5,413.3
		L319.1,413.3 L324.6,413.3 L330.2,413.2 L335.8,412.9 L341.4,412.7 L347.0,412.7 L352.6,412.6 L358.1,412.6
		L363.7,412.5 L369.3,412.4 L374.9,412.3 L380.5,412.2 L386.1,412.2 L391.6,412.0 L397.2,411.9 L402.8,411.8
		L408.4,411.8 L414.0,411.7 L419.6,411.7 L425.1,411.6 L430.7,411.6 L436.3,411.6 L441.9,411.5 L447.5,411.5
		L453.1,411.4 L458.7,411.3 L464.2,411.1 L469.8,411.0 L475.4,410.9 L481.0,410.8 L486.6,410.7 L492.2,410.7
		L497.7,410.5 L503.3,410.5 L508.9,410.4 L514.5,410.4 L520.1,410.1 L525.7,410.1 L531.2,409.8 L536.8,409.3
		L542.4,408.6 L548.0,408.6 L553.6,408.6 L559.2,408.3 L564.7,407.8 L570.3,406.4 L575.9,406.1 L581.5,405.5
		L587.1,40.6 L592.7,35.0 L598.2,33.6 L603.8,33.5 L609.4,28.5 L615.0,26.0  '/></g>
	</g>
	<g id="gnuplot_plot_2" ><title>pages+cached+noexternal+noimg</title>
<g fill="none" color="black" stroke="currentColor" stroke-width="1.00" stroke-linecap="butt" stroke-linejoin="miter">
	<g transform="translate(279.8,485.9)" stroke="none" fill="black" font-family="Arial" font-size="12.00"  text-anchor="end">
		<text><tspan font-family="Arial" >pages+cached+noexternal+noimg</tspan></text>
	</g>
</g>
<g fill="none" color="black" stroke="currentColor" stroke-width="1.00" stroke-linecap="butt" stroke-linejoin="miter">
	<path stroke='rgb(  0, 158, 115)'  d='M288.1,482.0 L330.3,482.0 M62.2,420.1 L67.8,420.0 L73.4,419.8 L79.0,419.3 L84.5,418.6 L90.1,418.3
		L95.7,418.2 L101.3,417.6 L106.9,417.3 L112.5,416.7 L118.0,416.3 L123.6,416.1 L129.2,416.0 L134.8,416.0
		L140.4,416.0 L146.0,415.5 L151.5,415.3 L157.1,415.3 L162.7,415.2 L168.3,415.1 L173.9,414.6 L179.5,414.5
		L185.0,414.4 L190.6,414.3 L196.2,414.0 L201.8,413.9 L207.4,413.8 L213.0,413.4 L218.5,413.3 L224.1,413.3
		L229.7,413.1 L235.3,413.1 L240.9,412.4 L246.5,412.1 L252.1,410.3 L257.6,168.0 L263.2,166.9 L268.8,165.0
		L274.4,163.5 L280.0,163.2 L285.6,163.0 L291.1,162.0 L296.7,161.8 L302.3,160.4 L307.9,159.3 L313.5,159.0
		L319.1,159.0 L324.6,158.9 L330.2,157.1 L335.8,157.0 L341.4,45.9 L347.0,44.1 L352.6,43.1 L358.1,41.5
		L363.7,41.0 L369.3,40.8 L374.9,40.3 L380.5,40.2 L386.1,40.2 L391.6,40.0 L397.2,39.5 L402.8,38.8
		L408.4,38.6 L414.0,37.9 L419.6,37.9 L425.1,37.8 L430.7,37.8 L436.3,37.8 L441.9,37.6 L447.5,37.3
		L453.1,37.1 L458.7,36.9 L464.2,36.8 L469.8,36.7 L475.4,36.7 L481.0,36.7 L486.6,36.3 L492.2,35.9
		L497.7,35.9 L503.3,35.9 L508.9,35.8 L514.5,35.6 L520.1,35.6 L525.7,35.3 L531.2,35.3 L536.8,35.1
		L542.4,34.8 L548.0,34.8 L553.6,34.8 L559.2,34.6 L564.7,34.1 L570.3,33.4 L575.9,33.4 L581.5,33.4
		L587.1,33.0 L592.7,32.9 L598.2,32.8 L603.8,31.7 L609.4,30.5 L615.0,29.6  '/></g>
	</g>
	<g id="gnuplot_plot_3" ><title>score p10=3572</title>
<g fill="none" color="black" stroke="currentColor" stroke-width="1.00" stroke-linecap="butt" stroke-linejoin="miter">
	<g transform="translate(579.3,467.9)" stroke="none" fill="black" font-family="Arial" font-size="12.00"  text-anchor="end">
		<text><tspan font-family="Arial" >score p10=3572</tspan></text>
	</g>
</g>
<g fill="none" color="black" stroke="currentColor" stroke-width="1.00" stroke-linecap="butt" stroke-linejoin="miter">
	<path stroke='rgb( 86, 180, 233)'  d='M587.6,464.0 L629.8,464.0  '/></g>
	</g>
	<g id="gnuplot_plot_4" ><title>score median=6500</title>
<g fill="none" color="black" stroke="currentColor" stroke-width="1.00" stroke-linecap="butt" stroke-linejoin="miter">
	<g transform="translate(579.3,485.9)" stroke="none" fill="black" font-family="Arial" font-size="12.00"  text-anchor="end">
		<text><tspan font-family="Arial" >score median=6500</tspan></text>
	</g>
</g>
<g fill="none" color="black" stroke="currentColor" stroke-width="1.00" stroke-linecap="butt" stroke-linejoin="miter">
	<path stroke='rgb(230, 159,   0)'  d='M587.6,482.0 L629.8,482.0  '/></g>
	</g>
<g fill="none" color="#FFFFFF" stroke="rgb(230, 159,   0)" stroke-width="2.00" stroke-linecap="butt" stroke-linejoin="miter">
</g>
<g fill="none" color="black" stroke="currentColor" stroke-width="2.00" stroke-linecap="butt" stroke-linejoin="miter">
</g>
<g fill="none" color="black" stroke="black" stroke-width="1.00" stroke-linecap="butt" stroke-linejoin="miter">
</g>
<g fill="none" color="black" stroke="currentColor" stroke-width="1.00" stroke-linecap="butt" stroke-linejoin="miter">
	<path stroke='black'  d='M62.2,18.1 L62.2,428.0 L615.0,428.0 L615.0,18.1 L62.2,18.1 Z  '/></g>
<g fill="none" color="black" stroke="currentColor" stroke-width="1.00" stroke-linecap="butt" stroke-linejoin="miter">
</g>
</g>
</svg>
